!!!COM:	Anonymous
!!!OTL:	O Belle dyane
!!!AGN:	Song; Chanson; Virelai
!!!SCT:	Ano3004
!!!SCA:	Ano3004
!!!SMS:	Laborde
!!!folio:	59v-61r
!!!voices:	3
**kern	**kern	**kern
*staff3	*staff2	*staff1
*Ivox	*Ivox	*Ivox
*I"Contra	*I"Tenor	*I"Discantus
*I'C	*I'T	*I'D
*>[A,B]	*>[A,B]	*>[A,B]
*>A	*>A	*>A
*clefF4	*clefGv2	*clefG2
*k[]	*k[]	*k[]
*M2/1	*M2/1	*M2/1
*met(C|)	*met(C|)	*met(C|)
=1-	=1-	=1-
!	!	!LO:TX:X=-40:Z=8:t=Virelai
[0D	[0d	[0d
=2	=2	=2
1D]	1d]	1d]
1F	1A	1c
=3	=3	=3
1D	1B	1d
1A	1c	1e
=4	=4	=4
1D	1.d	1d
[1F	.	[1a
.	2c	.
=5	=5	=5
1F]	1d	1a]
1E	1e	2g
.	.	2a
=6	=6	=6
1F	0d	2b
.	.	2a
1D	.	2g
.	.	2f
=7	=7	=7
0A	1r	0e
.	1c	.
=8	=8	=8
0D	1d	1r
.	1d	1a
=9	=9	=9
1D	1f	1a
1F	1f	1a
=10	=10	=10
1C	1e	1g
[1D	[1d	[1f
=11	=11	=11
1D]	1d]	1f]
1AA	1c	1e
=12	=12	=12
2.D	0f	0d
4E	.	.
2.F	.	.
4G	.	.
=13	=13	=13
0A	0e	0c
=14	=14	=14
0A	0c	0e
=15	=15	=15
1A	1c	1e
1A	1c	1e
=16	=16	=16
0D	1.d	1f
.	.	1f
.	2c	.
=17	=17	=17
1C	1A	1e
1AA	1c	[1a
=18	=18	=18
0E	0B	2a]
.	.	4g
.	.	4f
.	.	1g
=19	=19	=19
1F	1.A	1f
[1C	.	[1e
.	2G	.
=20	=20	=20
2C]	1A	2e]
2AA	.	2d
1D	1F	[1d
=21	=21	=21
0AA	0E	2d]
.	.	2B
.	.	1c#i
=22	=22	=22
0r	[0D	0d
=23	=23	=23
0A	0D]	0r
=24	=24	=24
1B	0r	0d
[1G	.	.
=25	=25	=25
2G]	0r	0B
2F	.	.
2E	.	.
2D	.	.
=26	=26	=26
1E	0r	0c
1E	.	.
=27	=27	=27
1.D	0d	0d
[2G	.	.
=28	=28	=28
2G]	0B	1r
2F	.	.
2G	.	1d
2B	.	.
=29	=29	=29
1A	0c	1e
1A	.	1e
=30	=30	=30
[0D	0d	1f
.	.	1f
=31	=31	=31
0D]	1r	1f
.	1d	2e
.	.	2d
=32	=32	=32
0AA	1e	0c
.	1e	.
=33	=33	=33
0D	1f	0r
.	1f	.
=34	=34	=34
0r	1.f	0d
.	4e	.
.	4d	.
=35	=35	=35
0A	0c	1e
.	.	1e
=36	=36	=36
1A	0r	1.e
1A	.	.
.	.	4d
.	.	4c
=37	=37	=37
0G	0d	0B
=38	=38	=38
1r	1e	0A
1A	1e	.
=39	=39	=39
1E	1.e	1r
1E	.	1g
.	4d	.
.	4c	.
=40	=40	=40
0E	0B	1g
.	.	1g
=41	=41	=41
0F	1A	1.a
.	[1d	.
.	.	2g
=42	=42	=42
1D	1d]	2f
.	.	2e
[1A	1c	[1e
=43	=43	=43
2A]	1.A	1e]
2G	.	.
1F	.	1a
.	2B	.
=44	=44	=44
1E	1.c	1g
1C	.	[1cc
.	2d	.
=45	=45	=45
1r	1e	2cc]
.	.	2a
[1G	[1d	[1b
=46	=46	=46
1G]	1d]	2b]
.	.	2a
1A	1c	[1a
=47	=47	=47
0E	0B	2a]
.	.	4g#i
.	.	4f#i
.	.	1g#i
=48	=48	=48
1F	0A	[0a
[1D	.	.
=49	=49	=49
1D]	0r	0a]
1C	.	.
=50	=50	=50
1D	0A	0r
1F	.	.
=51	=51	=51
1E	1c	0r
1E	1c	.
=52	=52	=52
0D	0d	0a
=53	=53	=53
0A	0e	1cc
.	.	1cc
=54	=54	=54
0D	1r	1.dd
.	1d	.
.	.	2cc
=55	=55	=55
1r	0d	1a
1D	.	1a
=56	=56	=56
1D	0d	2b
.	.	2.a
1D	.	.
.	.	4g
.	.	2f
=57	=57	=57
1E	0c	1e
1E	.	1g
=58	=58	=58
1.D	0d	1f
.	.	2e
4C	.	2d
4BB	.	.
=59	=59	=59
[0AA	0e	1.c
.	.	2d
=60	=60	=60
0AA_	0A	0e
=61	=61	=61
0AA]	1r	0A
.	1A	.
=62	=62	=62
1r	1.A	0r
1A	.	.
.	4G	.
.	4F	.
=63	=63	=63
1B	1E	1r
1c	1E	1g
=64	=64	=64
0d	1D	1a
.	1D	1a
=65	=65	=65
0D	1d	1.a
.	1d	.
.	.	4g
.	.	4f
=66	=66	=66
0A	0c	1e
.	.	1e
=67	=67	=67
0D	1d	1f
.	1f	1d
=68	=68	=68
1AA	1e	1c
1BB	[1d	1d
=69	=69	=69
0AA	1d]	0e
.	1c	.
=70	=70	=70
1D	1d	1d
1E	1B	1g
=71	=71	=71
1.F	1A	1f
.	[1d	1d
2D	.	.
=72	=72	=72
0A	1d]	0e
.	1c#i	.
=73	=73	=73
1r	1d	1d
1D	1r	1B
=74	=74	=74
1.F	1.D	1A
.	.	[1d
2G	2E	.
=75	=75	=75
2A	2F	1d]
2B-i	2G	.
1G	1E	1c#
=76	=76	=76
1A	0D	2.d
.	.	4e
1r	.	2f
.	.	2g
=77	=77	=77
1AA	1.A	1e
1F	.	[1a
.	2B	.
=78	=78	=78
1E	1c	2a]
.	.	2g
[1D	1d	2f
.	.	2e
=79	=79	=79
2D]	1A	1f
2BB	.	.
[1C	[1G	[1e
=80	=80	=80
1C]	1G]	2e]
.	.	2d
1D	1F	[1d
=81	=81	=81
0AA	0E	2d]
.	.	2B
.	.	1c#i
=82	=82	=82
0Al	0Dl	0dl
!!LO:LB:i:g=z
=83||	=83||	=83||
*>B	*>B	*>B
*clefF4	*clefGv2	*clefG2
*k[]	*k[]	*k[]
*M2/1	*M2/1	*M2/1
*met(C|)	*met(C|)	*met(C|)
!!section: Venus n'aproche
!!!OMD: Venus n'aproche
[0D	1.d	0d
.	2c	.
=84	=84	=84
0D]	1.A	0f
.	2B	.
=85	=85	=85
0A	0c	0e
=86	=86	=86
1.B-i	0d	1.d
2A	.	2c
=87	=87	=87
1F	0f	1A
1D	.	1B
=88	=88	=88
0A	0e	0c
=89	=89	=89
[0D	0d	1r
.	.	1d
=90	=90	=90
0D]	1r	1f
.	1d	1f
=91	=91	=91
1AA	1.c	1e
[1E	.	[1g
.	2d	.
=92	=92	=92
1E]	1e	1g]
1D	[1f	1f
=93	=93	=93
0F	2f]	0a
.	2d	.
.	1f	.
=94	=94	=94
1C	1e	1g
1D	[1d	1f
=95	=95	=95
0A	1d]	0e
.	1c#i	.
=96	=96	=96
1D	1d	0d
1F	1D	.
=97	=97	=97
1G	1E	1c
1A	1F	1A
=98	=98	=98
0E	0G	0B
=99	=99	=99
0AA	0A	0A
=100	=100	=100
0r	0r	0r
=101	=101	=101
0F	0c	0a
=102	=102	=102
1G	1B	1g
1G	1B	1g
=103	=103	=103
1A	1A	0cc
1c	1A	.
=104	=104	=104
0d	1G	1b
.	1G	1g
=105	=105	=105
0A	0c	2a
.	.	2g
.	.	2f
.	.	2e
=106	=106	=106
0B-i	1r	0d
.	1d	.
=107	=107	=107
0A	1e	1r
.	1e	1c
=108	=108	=108
0D	1.f	1d
.	.	1f
.	2e	.
=109	=109	=109
[0A	[0c	1e
.	.	1e
=110	=110	=110
1A]	1c]	0a
1D	1d	.
=111	=111	=111
1E	1B	1g
1AA	[1A	[1f
=112	=112	=112
1D	1A]	2f]
.	.	2e
1E	1G	[1e
=113	=113	=113
1F	1A	2e]
.	.	2c
1D	1B	1d
=114	=114	=114
1.C	1.c	[0e
2D	2B	.
=115	=115	=115
1.E	1G	1e]
.	[1c	1c
2C	.	.
=116	=116	=116
0G	2c]	0d
.	2A	.
.	1B	.
=117	=117	=117
[0C	[0c	0c
=118	=118	=118
0C]	1c]	1r
.	[1G	1e
=119	=119	=119
0G	1G]	1d
.	1B	[1g
=120	=120	=120
0D	0A	1g]
.	.	1f
=121	=121	=121
1E	1G	1g
1F	[1c	1a
=122	=122	=122
1E	1c]	1g
1C	1e	[1cc
=123	=123	=123
0G	0d	1cc]
.	.	1b
=124	=124	=124
1.A	1.c	1.cc
2B	2d	2b
=125	=125	=125
1c	1e	1g
1F	1f	1a
=126	=126	=126
1G	1.d	1b
[1D	.	[1a
.	2c	.
=127	=127	=127
1D]	1A	2a]
.	.	2g
1D	[1d	1f
=128	=128	=128
0A	1d]	0e
.	1c#i	.
=129	=129	=129
0D	0d	1d
.	.	1f
=130	=130	=130
0r	1e	1g
.	1c	[1a
=131	=131	=131
0E	0B	1a]
.	.	1g
=132	=132	=132
1F	1A	1cc
1G	1G	[1b
=133	=133	=133
1A	0c	2b]
.	.	2a
1F	.	[1a
=134	=134	=134
0G	0B-i	1a]
.	.	1g
=135	=135	=135
0D	1A	[0a
.	1d	.
=136	=136	=136
0F	1c	0a]
.	1d	.
=137	=137	=137
0E	1e	0g
.	1c	.
=138	=138	=138
[0D	1.d	[0f
.	2c	.
=139	=139	=139
0D]	1A	0f]
.	[1d	.
=140	=140	=140
0A	1d]	0e
.	1c#i	.
=141	=141	=141
0Dl	0dl	0dl
==	==	==
*-	*-	*-
!!!RDF**kern: l=long note in original notation
!!!RDF**kern: i=editorial accidental
!!!ENC:	Jesse Rodin 8/15/2013
!!!END:	2013/08/15/
!!!EED:	Jesse Rodin
!!!EEV:	2013/08/29/
!!!ONB:	Translated from MusicXML and edited on 2013/08/29/ by Craig Sapp
!!muse2ps: C^@{COM}\n@{SMS}, @{folio}^v85,85,150Q16i2I150
